X:1
T:O thou to whom all creatures bow
T:O thou to whom all creatures bow (William Bennett)
C:William Bennett
Z:p5, A New Set of Psalm
Z:Tunes and Anthems,
Z:Exeter: [c1770]
%%score [ 1 2 3 4 ]
L:1/8
M:3/4
K:Emin
V:1 treble nm="Soprano" snm="S."
V:2 treble nm="Alto" snm="A."
V:3 treble-8 transpose=-12 nm="Tenor" snm="T."
V:4 bass nm="Bass" snm="B."
V:1
 B2 | (G>F E2) (GA) | (B2 A2) (GB) | (A2 G2) F2 | G4 B2 | (B>A G2) F2 | (G2 A2) (Bc) | d6 | %8
w: Through|thee _ _ the _|weak _ con- *|found _ the|strong, And|crush _ _ their|haugh- * ty _|foes;|
w: O|thou, _ _ to _|whom _ all _|crea- * tures|bow With-|in _ _ this|earth- * ly _|frame,|
w: In|heav’n _ _ thy _|wond- * rous _|acts _ are|sung, Nor|ful- * * ly|rec- * kon’d _|there;|
 d2 d2 c2 | B4 c2 | (BA GF) E2 | A4 A2 | B4 F2 | G2 G4 | (G2 F2) F2 | (G>F G>A Bc | B4) e2 | %17
w: And so thou|quell’st the|wick- * * * ed|throng, That|thee and|thine op-|pose, _ that|thee _ _ _ _ _|_ and|
w: Through all the|world how|great _ _ _ art|thou! How|glo- rious|is thy|name, _ how|glo- * * * * *|* rious|
w: And yet thou|mak’st the|in- * * * fant|tongue Thy|bound- less|praise de-|clare, _ thy|bound- * * * * *|* less|
 c2 B4 | !fermata!B4 |] %19
w: thine op-|pose.|
w: is thy|name!|
w: praise de-|clare.|
V:2
 E2 | E4 ^D2 | (G2 F2) E2 | (F2 E2) ^D2 | E4 ^D2 | E4 B,2 | (G2 F2) E2 | F6 | G2 D2 F2 | G4 G2 | %10
w: Through|thee the|weak _ con-|found _ the|strong, And|crush their|haugh- * ty|foes;|And so thou|quell’st the|
w: O|thou, to|whom _ all|crea- * tures|bow With-|in this|earth- * ly|frame,|Through all the|world how|
w: In|heav’n thy|wond- * rous|acts _ are|sung, Nor|ful- ly|rec- * kon’d|there;|And yet thou|mak’st the|
 F2 E4 | E4 F2 | (GD E2) B,2 | E2 E4 | (E2 ^D2) z2 | z4 G2 | (G2 F2) E2 | E2 (E2 ^D2) | %18
w: wick- ed|throng, That|thee _ _ and|thine op-|pose, _|that|thee _ and|thine op- *|
w: great art|thou! How|glo- * * rious|is thy|name, _|how|glo- * rious|is thy _|
w: in- fant|tongue Thy|bound- * * less|praise de-|clare, _|thy|bound- * less|praise de- *|
 !fermata!E4 |] %19
w: pose.|
w: name!|
w: clare.|
V:3
 e2 | (B2 c2) (BA) | (G2 A2) B2 | c2 B4 | B4 B2 | (G>A B>c) d2 | (ed c2) B2 | A6 | B2 B2 c2 | %9
w: Through|thee _ the _|weak _ con-|found the|strong, And|crush _ _ _ their|haugh- * * ty|foes;|And so thou|
w: O|thou, _ to _|whom _ all|crea- tures|bow With-|in _ _ _ this|earth- * * ly|frame,|Through all the|
w: In|heav’n _ thy _|wond- * rous|acts are|sung, Nor|ful- * * * ly|rec- * * kon’d|there;|And yet thou|
 d4 e2 | (dc BA) B2 | c4 c2 | (BA G2) B2 | c2 (B2 ^A2) | B4 z2 | z4 e2 | (e2 ^d2) B2 | (A2 G2) F2 | %18
w: quell’st the|wick- * * * ed|throng, That|thee _ _ and|thine op- *|pose,|that|thee _ and|thine _ op-|
w: world how|great _ _ _ art|thou! How|glo- * * rious|is thy _|name,|how|glo- * rious|is _ thy|
w: mak’st the|in- * * * fant|tongue Thy|bound- * * less|praise de- *|clare,|thy|bound- * less|praise _ de-|
 !fermata!E4 |] %19
w: pose.|
w: name!|
w: clare.|
V:4
 E,2 | E,4 B,,2 | (E,2 F,2) G,2 | A,2 B,4 | E,4 B,,2 | (E,>F, G,>A,) B,2 | (B,2 A,2) G,2 | D,6 | %8
w: Through|thee the|weak _ con-|found the|strong, And|crush _ _ _ their|haugh- * ty|foes;|
w: O|thou, to|whom _ all|crea- tures|bow With-|in _ _ _ this|earth- * ly|frame,|
w: In|heav’n thy|wond- * rous|acts are|sung, Nor|ful- * * * ly|rec- * kon’d|there;|
 G,2 G,2 D,2 | G,4 C,2 | D,2 E,4 | [A,,A,]4 A,2 | (G,F, E,2) ^D,2 | E,2 C,4 | %14
w: And so thou|quell’st the|wick- ed|throng, That|thee _ _ and|thine op-|
w: Through all the|world how|great art|thou! How|glo- * * rious|is thy|
w: And yet thou|mak’st the|in- fant|tongue Thy|bound- * * less|praise de-|
"^Notes:Only fragments of the first verse of the text (‘O thou &c.’ and ‘how Glorious is thy name’) are given in the source:the remainder of this verse, and three selected subsequent verses, have here been added editorially.The top three parts are given in the treble clef, with the alto and tenor parts an octave above sounding pitch.The soprano part is identifiable as the topmost stave because of the use of a distinctive 'G' clef, commentedon by Bennett in a preface, ‘The common Theory of Music made easy, in a DIALOGUE between MASTERand SCHOLAR’, which forms pages [I] - IV of A New Set of Psalm Tunes and Anthems:‘[A]s the G Cliff is by far the easiest for young Beginners, I have set all the three upper Parts in that Cliff, onlyfor Distinction I have set Gs to the Treble, and the modern G Cliff Signature to the two inner Parts, as theyare sung an Octave below.’" B,,4 B,,2 | %15
w: pose, that|
w: name, how|
w: clare, thy|
 (E,>D, E,>F, G,E, | B,4) [E,G,]2 | [A,,A,]2 [B,,B,]4 | !fermata![E,,E,]4 |] %19
w: thee _ _ _ _ _|_ and|thine op-|pose.|
w: glo- * * * * *|* rious|is thy|name!|
w: bound- * * * * *|* less|praise de-|clare.|

